Страховая/img/svg/secStep1.svg

<svg width="112" height="112" viewBox="0 0 112 112" fill="none" xmlns="http://www.w3.org/2000/svg">
<path d="M30.3747 24.8159C48.5118 14.7612 68.5648 16.9461 84.091 32.4723C99.6172 47.9985 97.4012 73.0116 81.8313 88.5815C66.2614 104.151 32.1603 83.7792 16.6341 68.253C1.10791 52.7268 9.93857 36.1451 30.3747 24.8159Z" fill="#E7F1F2"/>
<path d="M40.7925 41.8639C42.0298 41.3519 43.3098 40.7759 44.6325 40.1359C45.9978 39.4533 47.3205 38.7279 48.6005 37.9599C49.8805 37.1493 51.0965 36.3173 52.2485 35.4639C53.4431 34.5679 54.5098 33.6293 55.4485 32.6479H62.1045V77H52.5685V45.0639C51.2885 45.9173 49.8591 46.7066 48.2805 47.4319C46.7018 48.1146 45.1658 48.712 43.6725 49.2239L40.7925 41.8639Z" fill="#5FB5BF"/>
</svg>

<svg width="112" height="112" fill="none" xmlns="http://www.w3.org/2000/svg"><path d="M30.375 24.816c18.137-10.055 38.19-7.87 53.716 7.656 15.526 15.526 13.31 40.54-2.26 56.11-15.57 15.569-49.67-4.803-65.197-20.329C1.108 52.727 9.94 36.145 30.374 24.816z" fill="#E7F1F2"/><path d="M40.792 41.864a72.338 72.338 0 003.84-1.728A58.924 58.924 0 0048.6 37.96a60.533 60.533 0 003.648-2.496 26.005 26.005 0 003.2-2.816h6.657V77h-9.536V45.064a31.202 31.202 0 01-4.288 2.368 63.538 63.538 0 01-4.608 1.792l-2.88-7.36z" fill="#5FB5BF"/></svg>
